dist/icons/svgs/arrow-right-to-bracket-solid.svg

<svg xmlns="http://www.w3.org/2000/svg" width="24" height="24" fill="currentcolor" class="icon-arrow-right-to-bracket-solid" viewBox="0 0 24 24">
  <path d="M15.75 5.75C15.0469 5.75 14.5 5.20312 14.5 4.5C14.5 3.83594 15.0469 3.25 15.75 3.25H18.25C20.3203 3.25 22 4.92969 22 7V17C22 19.0703 20.3203 20.75 18.25 20.75H15.75C15.0469 20.75 14.5 20.2031 14.5 19.5C14.5 18.8359 15.0469 18.25 15.75 18.25H18.25C18.9141 18.25 19.5 17.7031 19.5 17V7C19.5 6.33594 18.9141 5.75 18.25 5.75H15.75ZM15.3594 12.8984L10.3594 17.8984C9.89062 18.4062 9.07031 18.4062 8.60156 17.8984C8.09375 17.4297 8.09375 16.6094 8.60156 16.1406L11.4531 13.25H3.25C2.54688 13.25 2 12.7031 2 12C2 11.3359 2.54688 10.75 3.25 10.75H11.4531L8.60156 7.89844C8.09375 7.42969 8.09375 6.60938 8.60156 6.14062C9.07031 5.63281 9.89062 5.63281 10.3594 6.14062L15.3594 11.1406C15.8672 11.6094 15.8672 12.4297 15.3594 12.8984Z"/>
</svg>

<svg xmlns="http://www.w3.org/2000/svg" width="24" height="24" fill="currentColor" class="icon-arrow-right-to-bracket-solid" viewBox="0 0 24 24">
  <path d="M15.75 5.75c-.703 0-1.25-.547-1.25-1.25 0-.664.547-1.25 1.25-1.25h2.5C20.32 3.25 22 4.93 22 7v10c0 2.07-1.68 3.75-3.75 3.75h-2.5c-.703 0-1.25-.547-1.25-1.25 0-.664.547-1.25 1.25-1.25h2.5c.664 0 1.25-.547 1.25-1.25V7c0-.664-.586-1.25-1.25-1.25zm-.39 7.148-5 5a1.205 1.205 0 0 1-1.758 0 1.205 1.205 0 0 1 0-1.757l2.851-2.891H3.25C2.547 13.25 2 12.703 2 12c0-.664.547-1.25 1.25-1.25h8.203L8.602 7.898a1.205 1.205 0 0 1 0-1.757 1.205 1.205 0 0 1 1.757 0l5 5a1.203 1.203 0 0 1 0 1.757"/>
</svg>
